X: 15042
T: George White's Favourite
R: reel
M: 4/4
K: Dmajor
|:BF~F2 BFAF|EDEF DBAB|DF~F2 DEFA|BFAF efed|
BF~F2 BFAF|EDEF DBAB|D2FA dBAF|1 EDEF D2 z A:|2 EDEF D2 z B||
|:dBAB defe|~d3e dBAB|ABde fded|Beed ~e2de|
fdBd ~A3B|dBAB defe|~d2dA BdAF|EDEF D2 z c:|

